chrome/icons/open-window.svg

<svg height="16" viewBox="64 64 896 896" width="16" xmlns="http://www.w3.org/2000/svg" xmlns:xlink="http://www.w3.org/1999/xlink">
  <path d="M448,544C448,535.333 451.167,527.833 457.5,521.5L851,128L544,128C535.333,128 527.833,124.833 521.5,118.5C515.167,112.167 512,104.667 512,96C512,87.3334 515.167,79.8334 521.5,73.5C527.833,67.1667 535.333,64.0001 544,64L928,64C936.667,64.0001 944.167,67.1667 950.5,73.5C956.833,79.8334 960,87.3334 960,96L960,480C960,488.667 956.833,496.167 950.5,502.5C944.167,508.833 936.667,512 928,512C919.333,512 911.833,508.833 905.5,502.5C899.167,496.167 896,488.667 896,480L896,173.5L502.5,566.5C499.167,569.5 495.75,571.833 492.25,573.5C488.75,575.167 484.667,576 480,576C471.333,576 463.833,572.833 457.5,566.5C451.167,560.167 448,552.667 448,544ZM252,960C227,960 203.083,954.917 180.25,944.75C157.417,934.583 137.417,920.917 120.25,903.75C103.083,886.583 89.4167,866.583 79.25,843.75C69.0833,820.917 64,797 64,772L64,316C64,291 69.0833,267.083 79.25,244.25C89.4167,221.417 103.083,201.417 120.25,184.25C137.417,167.083 157.417,153.417 180.25,143.25C203.083,133.083 227,128 252,128L416,128C424.667,128 432.167,131.167 438.5,137.5C444.833,143.833 448,151.333 448,160C448,168.667 444.833,176.167 438.5,182.5C432.167,188.833 424.667,192 416,192L253.5,192C236.833,192 220.917,195.417 205.75,202.25C190.583,209.083 177.25,218.25 165.75,229.75C154.25,241.25 145.083,254.583 138.25,269.75C131.417,284.917 128,300.833 128,317.5L128,770.5C128,787.167 131.417,803.083 138.25,818.25C145.083,833.417 154.25,846.75 165.75,858.25C177.25,869.75 190.583,878.917 205.75,885.75C220.917,892.583 236.833,896 253.5,896L706.5,896C723.833,896 740.083,892.5 755.25,885.5C770.417,878.5 783.667,869.167 795,857.5C806.333,845.833 815.333,832.25 822,816.75C828.667,801.25 832,785 832,768L832,608C832,599.333 835.167,591.833 841.5,585.5C847.833,579.167 855.333,576 864,576C872.667,576 880.167,579.167 886.5,585.5C892.833,591.833 896,599.333 896,608L896,772C896,797 890.917,820.917 880.75,843.75C870.583,866.583 856.917,886.583 839.75,903.75C822.583,920.917 802.583,934.583 779.75,944.75C756.917,954.917 733,960 708,960Z" fill="context-fill" fill-opacity="context-fill-opacity">
  </path>
</svg>

<svg xmlns="http://www.w3.org/2000/svg" width="16" height="16" viewBox="64 64 896 896"><path fill="context-fill" fill-opacity="context-fill-opacity" d="M448 544q0-13 9.5-22.5L851 128H544q-13 0-22.5-9.5T512 96t9.5-22.5T544 64h384q13 0 22.5 9.5T960 96v384q0 13-9.5 22.5T928 512t-22.5-9.5T896 480V173.5l-393.5 393q-5 4.5-10.25 7T480 576q-13 0-22.5-9.5T448 544M252 960q-37.5 0-71.75-15.25t-60-41-41-60T64 772V316q0-37.5 15.25-71.75t41-60 60-41T252 128h164q13 0 22.5 9.5T448 160t-9.5 22.5T416 192H253.5q-25 0-47.75 10.25t-40 27.5-27.5 40T128 317.5v453q0 25 10.25 47.75t27.5 40 40 27.5T253.5 896h453q26 0 48.75-10.5t39.75-28 27-40.75T832 768V608q0-13 9.5-22.5T864 576t22.5 9.5T896 608v164q0 37.5-15.25 71.75t-41 60-60 41T708 960Z"/></svg>
